X:1
T:Part I: Writing
M:4/4
L:1/1
K:Bb
V:1
"^Gm"[GBd]|"^Cm"[Gce]|"^F"[Acf]|"^Bb"[Bdf]||[K:E]\
"^C#m"[CEG]|"^F#m"[CFA]|"^B"[DFB]|"^E"[EGB]||
V:2
G,|C,|F,|B,,||[K:E]C,|F,,|B,,|E,,||
w:Bb:~vi ii V I
%
W: Realize the descending fifths progression in simple keyboard style and add Roman numerals.
W:Then transpose to E major, adding roman numerals and chord symbols.

